X:340
T:New Boy in Toon Town
M:C|
C:© Paul Gitlitz,  2012
R:Reel
K:Em
"Em"EB (3BBB "G"dB (3BBB|"A"^cA (3AAA "Em"BAGE|"Bm"FD (3DDD "D"AD (3DDD|"Bm"BAGF "G"GFED|!
"Em"EB (3BBB "G"dB (3BBB|"A"^cA (3AAA "Em"BAGE|"C"CE (3EEE "Am"GE (3EEE|1"D"AGFG A2GF:|2"D"AGFA "Em"GEED|!
|:"C"CE (3EEE GFED|"D"DA (3AAA BAGF|"Em"EB (3BBB "G"dB  (3BBB|"G"dABA "D"GAFD|!
"C"CE (3EEE GFED|"D"DA (3AAA BAGF|"Em"EB (3BBB "D"dABA|1"D"GAFD "Em"E2D2:|2"D"GAFD "Em"E4|]
